pieces/kosal/nw.svg

<svg xmlns="http://www.w3.org/2000/svg" viewBox="0 0 81 81"><style>.st0{fill:#fff}.st1{fill:#cfcecf}</style><path class="st0" d="M48 45.1c-3.3 1.6-7.2 1.9-11 .7l-.4-.1-.3.2c-.1.1-12 9.9-15.8 23.7l-.3.9H65L63.2 65v-.1c0-.1-.1-14.8-.1-23.8 0-16.9-7.6-25.6-15-28.6-3.7-1.4-9.2-2.5-12.4-2.5h-1.2l3.2 6.2-24.4 20.3 1 10.8 5 1.4 5.1-3.9H26l-4.3 4.5 1.1.4 6.7 1.9 5.5-6.8c3.5 1.5 7.7 1.3 12.5-.6 2.8-1.2 5.1-3.6 6.5-5.6-.9 2.8-3 5.1-6 6.5z"/><path d="M38 22.1l-7.7 6.2c-.5.5-.6 1.3-.2 1.9.3.4.7.6 1.1.6.2 0 .4 0 .6-.1l9.1-3.6-2.9-5z"/><path class="st1" d="M38.7 70.7l17.7.3h8.5s-2.1-5.2-2.1-7.2V28.6c0 8.4-2.7 18-9.5 24.8C40.5 57 38.7 70.7 38.7 70.7zM34.6 47.3l1.3-1.8 8.8.8 4.8-2.2 3.9-3.4 2.4-6.5c-.8-1.3-2.2-2.1-4-2.8-2 7.7-8.1 12.3-16.3 10.4-.4 1.1-.7 1.9-.7 1.9l-7 .3-5.8 4.8 7 4.5 5.6-6z"/><path d="M18.2 72.2h49.1l-2.5-7.5V41.1c0-6.8-.9-23.9-16-30.1-5.8-2.4-14.6-2.6-15-2.5l-1.8.1 3.7 7.2-24.2 20 1.3 12.8 14.5 4.2c-3.5 4.5-7.3 10.7-8.9 18l-.2 1.4zm18.5-25.7c1.5.5 3.1.8 4.8.8 2.4 0 4.7-.5 6.8-1.5 4.1-2 6.8-5.6 7.3-10.1l.2-1.4-.6 1.2c0 .1-3 5.8-7.9 8-3.9 1.6-8.4 2.4-12.4.4l-5.6 6.9-5.8-1.7-.4-.1 4.7-4.9h-3.7l-5 3.8-4.1-1.2-.9-9.9 24.6-20.4-2.9-5.6c2.9 0 8.3.9 12.1 2.4 5.7 2.3 14.5 9.6 14.5 27.9 0 9.1.1 23.8.1 23.8v.2l1.5 4.7H21.2c3.6-13.2 14.7-22.7 15.5-23.3z"/></svg>

<svg width="81" height="81" viewBox="0 0 81 81" fill="none" xmlns="http://www.w3.org/2000/svg">
<path d="M48 45.1C44.7 46.7 40.8 47 37 45.8L36.6 45.7L36.3 45.9C36.2 46 24.3 55.8 20.5 69.6L20.2 70.5H65L63.2 65V64.9C63.2 64.8 63.1 50.1 63.1 41.1C63.1 24.2 55.5 15.5 48.1 12.5C44.4 11.1 38.9 10 35.7 10H34.5L37.7 16.2L13.3 36.5L14.3 47.3L19.3 48.7L24.4 44.8H26L21.7 49.3L22.8 49.7L29.5 51.6L35 44.8C38.5 46.3 42.7 46.1 47.5 44.2C50.3 43 52.6 40.6 54 38.6C53.1 41.4 51 43.7 48 45.1V45.1Z" fill="white"/>
<path d="M38 22.1L30.3 28.3C29.8 28.8 29.7 29.6 30.1 30.2C30.4 30.6 30.8 30.8 31.2 30.8C31.4 30.8 31.6 30.8 31.8 30.7L40.9 27.1L38 22.1V22.1Z" fill="black"/>
<path d="M38.7 70.7L56.4 71H64.9C64.9 71 62.8 65.8 62.8 63.8V28.6C62.8 37 60.1 46.6 53.3 53.4C40.5 57 38.7 70.7 38.7 70.7ZM34.6 47.3L35.9 45.5L44.7 46.3L49.5 44.1L53.4 40.7L55.8 34.2C55 32.9 53.6 32.1 51.8 31.4C49.8 39.1 43.7 43.7 35.5 41.8C35.1 42.9 34.8 43.7 34.8 43.7L27.8 44L22 48.8L29 53.3L34.6 47.3V47.3Z" fill="#CFCECF"/>
<path d="M18.2 72.2H67.3L64.8 64.7V41.1C64.8 34.3 63.9 17.2 48.8 11C43 8.6 34.2 8.4 33.8 8.5L32 8.6L35.7 15.8L11.5 35.8L12.8 48.6L27.3 52.8C23.8 57.3 20 63.5 18.4 70.8L18.2 72.2ZM36.7 46.5C38.2 47 39.8 47.3 41.5 47.3C43.9 47.3 46.2 46.8 48.3 45.8C52.4 43.8 55.1 40.2 55.6 35.7L55.8 34.3L55.2 35.5C55.2 35.6 52.2 41.3 47.3 43.5C43.4 45.1 38.9 45.9 34.9 43.9L29.3 50.8L23.5 49.1L23.1 49L27.8 44.1H24.1L19.1 47.9L15 46.7L14.1 36.8L38.7 16.4L35.8 10.8C38.7 10.8 44.1 11.7 47.9 13.2C53.6 15.5 62.4 22.8 62.4 41.1C62.4 50.2 62.5 64.9 62.5 64.9V65.1L64 69.8H21.2C24.8 56.6 35.9 47.1 36.7 46.5Z" fill="black"/>
</svg>
